img/zen.svg

<?xml version="1.0" encoding="utf-8"?>
<!-- Generator: Adobe Illustrator 20.1.0, SVG Export Plug-In . SVG Version: 6.00 Build 0)  -->
<svg version="1.1" id="Layer_1" xmlns="http://www.w3.org/2000/svg" xmlns:xlink="http://www.w3.org/1999/xlink" x="0px" y="0px"
	 viewBox="0 0 1200 800" style="enable-background:new 0 0 1200 800;" xml:space="preserve">
<style type="text/css">
	.st0{fill-rule:evenodd;clip-rule:evenodd;fill:#FFFFFF;}
	.st1{fill-rule:evenodd;clip-rule:evenodd;}
	.st2{fill:#4AB749;}
</style>
<path class="st0" d="M257.3,155.4c135.9,0,246.1,110.2,246.1,246.1c0,135.9-110.2,246.1-246.1,246.1
	c-135.9,0-246.1-110.2-246.1-246.1C11.2,265.6,121.4,155.4,257.3,155.4L257.3,155.4z"/>
<path class="st1" d="M258.3,150.5c138.6,0,250.9,112.4,250.9,250.9c0,138.6-112.4,250.9-250.9,250.9
	C119.7,652.4,7.4,540.1,7.4,401.5C7.4,262.9,119.7,150.5,258.3,150.5L258.3,150.5z M255.7,163.5c-1.2,0-2.3,0-3.5,0.1
	C122.5,165.5,17.8,271.3,17.8,401.5c0,130.3,105,236.3,234.9,237.9c-64.3-1.6-115.9-54.3-115.9-118.9c0-65.7,53.3-119,119-119
	c65.7,0,119-53.3,119-119C374.7,216.8,321.4,163.5,255.7,163.5L255.7,163.5z"/>
<path class="st1" d="M218.2,305.9v-88.7c0-3.9,1.4-7.2,4.2-10c2.8-2.8,6.2-4.2,10.1-4.2h46.2c3.8,0,7.1,1.4,9.9,4.2
	c2.8,2.8,4.2,6.2,4.2,10v88.7c0,3.9-1.4,7.3-4.2,10.1c-2.8,2.8-6.2,4.2-10.1,4.2h-46.1c-4,0-7.4-1.4-10.2-4.2
	C219.6,313.2,218.2,309.8,218.2,305.9L218.2,305.9z M278.2,305.4v-87.5H233v87.5H278.2L278.2,305.4z"/>
<path class="st0" d="M235.1,574.1h22.8v-87.4h-22.4c-2.1,0-3.8-0.7-5.3-2.2c-1.4-1.4-2.2-3.2-2.2-5.3c0-2,0.7-3.8,2.2-5.2
	c1.4-1.4,3.2-2.2,5.3-2.2h37.2v102.3h14.8v-30.9c0-2,0.7-3.7,2.2-5.2c1.4-1.5,3.2-2.2,5.3-2.2c2.1,0,3.8,0.7,5.3,2.2
	c1.4,1.4,2.2,3.2,2.2,5.3v38.3c0,2.1-0.7,3.8-2.2,5.3c-1.4,1.4-3.2,2.1-5.3,2.1h-59.8c-2.1,0-3.8-0.7-5.2-2.2
	c-1.4-1.5-2.2-3.3-2.2-5.3c0-2,0.7-3.7,2.2-5.1C231.3,574.8,233,574.1,235.1,574.1L235.1,574.1z"/>
<g>
	<path d="M708.6,374.3c-12.6,1.7-26.4,6.7-41.3,14.9c-24.8,13.1-45.9,31.6-63.2,55.4c-16.9,22.6-25.3,42.9-25.3,61H539
		c0-21.1,9.2-44.9,27.5-71.4c16.1-23.6,35.2-43.5,57.3-59.9h-77.4v-28.6l161.8,0.4L708.6,374.3z M708.6,464.7l-8.2,31.6H557.2
		l11.2-31.6H708.6z"/>
	<path d="M889.3,403.7c0,8.7-3.5,15.7-10.4,21.2c-5.9,4.5-12.2,6.7-18.9,6.7h-94.9v36.4h121.2l-8.2,27.1H753.6c-6.7,0-13-2.3-19-6.9
		c-6.9-5.1-10.4-11.8-10.4-20.3V346.8h125.3V332l36.8-3.7v45.4H765.1v27.1h124.2V403.7z"/>
	<path d="M1098.4,520.1c-19.3,0-37.8-7.8-55.7-23.4c-20-17.6-44.1-49.1-72.3-94.5v91.5l-40.9,3.7V368.4c-5.7-0.7-11.4-1.5-17.1-2.2
		c-5.7-2.2-8.6-6.9-8.6-14.1v-6.7h70.5c27.5,50.1,59.1,96.2,95,138.3V345.3h36.8v151.4c3.5,0.7,5.4,0.8,6.3,0.7
		c4.3-0.2,35.3-8,36.5-8.3C1149,489.2,1105.3,520.1,1098.4,520.1z"/>
</g>
<path class="st2" d="M1182.9,490.6c-15.1,12.3-43.1,3-43.1,3s-3.4-29.2,11.7-41.6c15.1-12.3,43.1-3,43.1-3
	S1198.1,478.3,1182.9,490.6z"/>
<path class="st2" d="M1132.4,478.3c-0.4,7-9.6,12.1-9.6,12.1s-8.6-6.2-8.2-13.2c0.4-7,9.6-12.1,9.6-12.1S1132.8,471.3,1132.4,478.3z
	"/>
<path class="st2" d="M1146.8,527.8c-12.2-2-19.9-17-19.9-17s12.1-11.8,24.3-9.8c12.2,2,19.9,17,19.9,17S1159,529.8,1146.8,527.8z"/>
<g>
</g>
<g>
</g>
<g>
</g>
<g>
</g>
<g>
</g>
<g>
</g>
</svg>

<?xml version="1.0" encoding="UTF-8" standalone="no"?>
<!DOCTYPE svg PUBLIC "-//W3C//DTD SVG 1.1//EN" "http://www.w3.org/Graphics/SVG/1.1/DTD/svg11.dtd">
<svg width="100%" height="100%" viewBox="0 0 1200 517" version="1.1" xmlns="http://www.w3.org/2000/svg" xmlns:xlink="http://www.w3.org/1999/xlink" xml:space="preserve" style="fill-rule:evenodd;clip-rule:evenodd;stroke-linejoin:round;stroke-miterlimit:1.41421;">
    <g transform="matrix(1,0,0,1,0,-143.1)">
        <path d="M257.3,155.4C393.2,155.4 503.4,265.6 503.4,401.5C503.4,537.4 393.2,647.6 257.3,647.6C121.4,647.6 11.2,537.4 11.2,401.5C11.2,265.6 121.4,155.4 257.3,155.4Z" style="fill:white;"/>
    </g>
    <g transform="matrix(1,0,0,1,0,-143.1)">
        <path d="M258.3,150.5C396.9,150.5 509.2,262.9 509.2,401.4C509.2,540 396.8,652.3 258.3,652.3C119.7,652.4 7.4,540.1 7.4,401.5C7.4,262.9 119.7,150.5 258.3,150.5ZM255.7,163.5C254.5,163.5 253.4,163.5 252.2,163.6C122.5,165.5 17.8,271.3 17.8,401.5C17.8,531.8 122.8,637.8 252.7,639.4C188.4,637.8 136.8,585.1 136.8,520.5C136.8,454.8 190.1,401.5 255.8,401.5C321.5,401.5 374.8,348.2 374.8,282.5C374.7,216.8 321.4,163.5 255.7,163.5Z"/>
    </g>
    <g transform="matrix(1,0,0,1,0,-143.1)">
        <path d="M218.2,305.9L218.2,217.2C218.2,213.3 219.6,210 222.4,207.2C225.2,204.4 228.6,203 232.5,203L278.7,203C282.5,203 285.8,204.4 288.6,207.2C291.4,210 292.8,213.4 292.8,217.2L292.8,305.9C292.8,309.8 291.4,313.2 288.6,316C285.8,318.8 282.4,320.2 278.5,320.2L232.4,320.2C228.4,320.2 225,318.8 222.2,316C219.6,313.2 218.2,309.8 218.2,305.9ZM278.2,305.4L278.2,217.9L233,217.9L233,305.4L278.2,305.4Z"/>
    </g>
    <g transform="matrix(1,0,0,1,0,-143.1)">
        <path d="M235.1,574.1L257.9,574.1L257.9,486.7L235.5,486.7C233.4,486.7 231.7,486 230.2,484.5C228.8,483.1 228,481.3 228,479.2C228,477.2 228.7,475.4 230.2,474C231.6,472.6 233.4,471.8 235.5,471.8L272.7,471.8L272.7,574.1L287.5,574.1L287.5,543.2C287.5,541.2 288.2,539.5 289.7,538C291.1,536.5 292.9,535.8 295,535.8C297.1,535.8 298.8,536.5 300.3,538C301.7,539.4 302.5,541.2 302.5,543.3L302.5,581.6C302.5,583.7 301.8,585.4 300.3,586.9C298.9,588.3 297.1,589 295,589L235.2,589C233.1,589 231.4,588.3 230,586.8C228.6,585.3 227.8,583.5 227.8,581.5C227.8,579.5 228.5,577.8 230,576.4C231.3,574.8 233,574.1 235.1,574.1Z" style="fill:white;"/>
    </g>
    <g>
        <g transform="matrix(1,0,0,1,0,-143.1)">
            <path d="M708.6,374.3C696,376 682.2,381 667.3,389.2C642.5,402.3 621.4,420.8 604.1,444.6C587.2,467.2 578.8,487.5 578.8,505.6L539,505.6C539,484.5 548.2,460.7 566.5,434.2C582.6,410.6 601.7,390.7 623.8,374.3L546.4,374.3L546.4,345.7L708.2,346.1L708.6,374.3ZM708.6,464.7L700.4,496.3L557.2,496.3L568.4,464.7L708.6,464.7Z" style="fill-rule:nonzero;"/>
        </g>
        <g transform="matrix(1,0,0,1,0,-143.1)">
            <path d="M889.3,403.7C889.3,412.4 885.8,419.4 878.9,424.9C873,429.4 866.7,431.6 860,431.6L765.1,431.6L765.1,468L886.3,468L878.1,495.1L753.6,495.1C746.9,495.1 740.6,492.8 734.6,488.2C727.7,483.1 724.2,476.4 724.2,467.9L724.2,346.8L849.5,346.8L849.5,332L886.3,328.3L886.3,373.7L765.1,373.7L765.1,400.8L889.3,400.8L889.3,403.7Z" style="fill-rule:nonzero;"/>
        </g>
        <g transform="matrix(1,0,0,1,0,-143.1)">
            <path d="M1098.4,520.1C1079.1,520.1 1060.6,512.3 1042.7,496.7C1022.7,479.1 998.6,447.6 970.4,402.2L970.4,493.7L929.5,497.4L929.5,368.4C923.8,367.7 918.1,366.9 912.4,366.2C906.7,364 903.8,359.3 903.8,352.1L903.8,345.4L974.3,345.4C1001.8,395.5 1033.4,441.6 1069.3,483.7L1069.3,345.3L1106.1,345.3L1106.1,496.7C1109.6,497.4 1111.5,497.5 1112.4,497.4C1116.7,497.2 1147.7,489.4 1148.9,489.1C1149,489.2 1105.3,520.1 1098.4,520.1Z" style="fill-rule:nonzero;"/>
        </g>
    </g>
    <g transform="matrix(1,0,0,1,0,-143.1)">
        <path d="M1182.9,490.6C1167.8,502.9 1139.8,493.6 1139.8,493.6C1139.8,493.6 1136.4,464.4 1151.5,452C1166.6,439.7 1194.6,449 1194.6,449C1194.6,449 1198.1,478.3 1182.9,490.6Z" style="fill:rgb(74,183,73);fill-rule:nonzero;"/>
    </g>
    <g transform="matrix(1,0,0,1,0,-143.1)">
        <path d="M1132.4,478.3C1132,485.3 1122.8,490.4 1122.8,490.4C1122.8,490.4 1114.2,484.2 1114.6,477.2C1115,470.2 1124.2,465.1 1124.2,465.1C1124.2,465.1 1132.8,471.3 1132.4,478.3Z" style="fill:rgb(74,183,73);fill-rule:nonzero;"/>
    </g>
    <g transform="matrix(1,0,0,1,0,-143.1)">
        <path d="M1146.8,527.8C1134.6,525.8 1126.9,510.8 1126.9,510.8C1126.9,510.8 1139,499 1151.2,501C1163.4,503 1171.1,518 1171.1,518C1171.1,518 1159,529.8 1146.8,527.8Z" style="fill:rgb(74,183,73);fill-rule:nonzero;"/>
    </g>
</svg>
